**kern	**silbe	**kern	**silbe	**harmony	**chordsym	**phrase	**timestamp	**leadinstrument
*ICvox	*	*ICvox	*	*M4/4	*M4/4	*	*	*
*	*	*	*	*F:	*F:	*	*	*
=1	=1	=1	=1	=1	=1	=1	=1	=1
*F:	*	*F:	*	*	*	*	*	*
*M4/4	*	*M4/4	*	*	*	*	*	*
*clefC3	*	*clefG2	*	*	*	*	*	*
1r	.	1r	.	1r;	r	.	0	r
=2	=2	=2	=2	=2	=2	=2	=2	=2
*	*	*	*	*>A_intro	*>A_intro	*>A_intro	*>A_intro	*>A_intro
1r	.	1r	.	1FM	F:maj (F A C)	newline	0.464	synthesizer
=3	=3	=3	=3	=3	=3	=3	=3	=3
2r	.	1r	.	1FM	F:maj (F A C)	.	.	synthesizer
4r	.	.	.	.	.	.	.	.
8.r	.	.	.	.	.	.	.	.
16F	I	.	.	.	.	.	.	.
=4	=4	=4	=4	=4	=4	=4	=4	=4
8c	call	1r	.	1FM	F:1 (F)	.	.	synthesizer
8c	you,	.	.	.	.	.	.	.
8r	_	.	.	.	.	.	.	.
16c	when	.	.	.	.	.	.	.
16c	I	.	.	.	.	.	.	.
8d	need	.	.	.	.	.	.	.
8d	you,	.	.	.	.	.	.	.
8r	_	.	.	.	.	.	.	.
8d	my	.	.	.	.	.	.	.
=5	=5	=5	=5	=5	=5	=5	=5	=5
8dq	_	.	.	.	.	.	.	.
4e	heart's	1r	.	1FM	F:1 (F)	.	.	synthesizer
8f	on	.	.	.	.	.	.	.
[8f	fi	.	.	.	.	.	.	.
8f]	_	.	.	.	.	.	.	.
16d	_	.	.	.	.	.	.	.
16c	_	.	.	.	.	.	.	.
4c	re.	.	.	.	.	.	.	.
=6	=6	=6	=6	=6	=6	=6	=6	=6
*	*	*	*	*>B_verse	*>B_verse	*>B_verse	*>B_verse	*>B_verse
1r	.	1r	.	1FM	F:maj (F A C)	newline	9.709	voice
=7	=7	=7	=7	=7	=7	=7	=7	=7
2r	.	1r	.	1FM	F:maj (F A C)	.	.	voice
4.r	.	.	.	.	.	.	.	.
8F	You	.	.	.	.	.	.	.
=8	=8	=8	=8	=8	=8	=8	=8	=8
4c	come	1r	.	2FM	F:maj (F A C)	.	.	voice
8c	to	.	.	.	.	.	.	.
8c	me,	.	.	.	.	.	.	.
4d	come	.	.	2FM	F:maj6 (F A C D)	.	.	voice
8d	to	.	.	.	.	.	.	.
8d	me,	.	.	.	.	.	.	.
=9	=9	=9	=9	=9	=9	=9	=9	=9
8e	wi-	1r	.	2FMM	F:maj7 (F A C E)	.	.	voice
8e	-ld	.	.	.	.	.	.	.
8f	and	.	.	.	.	.	.	.
[8f	wi	.	.	.	.	.	.	.
8f]	_	.	.	2FM	F:maj (F A C)	.	.	voice
16d	_	.	.	.	.	.	.	.
16c	_	.	.	.	.	.	.	.
4c	ld.	.	.	.	.	.	.	.
=10	=10	=10	=10	=10	=10	=10	=10	=10
1r	.	1r	.	1FM	F:maj (F A C)	newline	18.93	voice
=11	=11	=11	=11	=11	=11	=11	=11	=11
2r	.	1r	.	1FM	F:maj (F A C)	.	.	voice
8f	Oh,	.	.	.	.	.	.	.
8f	you	.	.	.	.	.	.	.
8f	come	.	.	.	.	.	.	.
8f	to	.	.	.	.	.	.	.
=12	=12	=12	=12	=12	=12	=12	=12	=12
4f	me!	1r	.	2FM	F:maj (F A C)	.	.	voice
4r	_	.	.	.	.	.	.	.
2r	.	.	.	2FM	F:maj6 (F A C D)	.	.	voice
=13	=13	=13	=13	=13	=13	=13	=13	=13
8r	.	1r	.	2FMM	F:maj7 (F A C E)	.	.	voice
8a	Give	.	.	.	.	.	.	.
8g	me	.	.	.	.	.	.	.
8g	ev-	.	.	.	.	.	.	.
8f	-'ry-	.	.	2FM	F:maj (F A C)	.	.	voice
8f	-thing	.	.	.	.	.	.	.
8A	_	.	.	.	.	.	.	.
[8B-	I	.	.	.	.	.	.	.
=14	=14	=14	=14	=14	=14	=14	=14	=14
8B-]	_	1r	.	1Dmm	D:min9 (D F C E)	newline	28.178	voice
[4.B-	need	.	.	.	.	.	.	.
8B-]	_	.	.	.	.	.	.	.
8r	.	.	.	.	.	.	.	.
4r	.	.	.	.	.	.	.	.
=15	=15	=15	=15	=15	=15	=15	=15	=15
2r	.	1r	.	1Dmm	D:min9 (D F C E)	.	.	voice
4r	.	.	.	.	.	.	.	.
16c	Give	.	.	.	.	.	.	.
16c	me	.	.	.	.	.	.	.
16c	a	.	.	.	.	.	.	.
[16c	life	.	.	.	.	.	.	.
=16	=16	=16	=16	=16	=16	=16	=16	=16
8c]	_	1r	.	1B-M	B-:maj (B- D F)	.	.	voice
4c	time	.	.	.	.	.	.	.
16c	of	.	.	.	.	.	.	.
[16d	pro	.	.	.	.	.	.	.
16d]	_	.	.	.	.	.	.	.
16d	mi-	.	.	.	.	.	.	.
8d	-ses,	.	.	.	.	.	.	.
8r	_	.	.	.	.	.	.	.
16d	and	.	.	.	.	.	.	.
16d	a	.	.	.	.	.	.	.
=17	=17	=17	=17	=17	=17	=17	=17	=17
8dq	_	.	.	.	.	.	.	.
4e	world	1r	.	1B-M	B-:maj(9) (B- D F C)	.	.	voice
8f	of	.	.	.	.	.	.	.
[8f	dreams	.	.	.	.	.	.	.
8f]	_	.	.	.	.	.	.	.
16d	_	.	.	.	.	.	.	.
[16c	_	.	.	.	.	.	.	.
8c]	_	.	.	.	.	.	.	.
8r	.	.	.	.	.	.	.	.
=18	=18	=18	=18	=18	=18	=18	=18	=18
*	*	*	*	*>B_verse	*>B_verse	*>B_verse	*>B_verse	*>B_verse
1r	.	1r	.	1FM	F:maj (F A C)	newline	37.446	voice
=19	=19	=19	=19	=19	=19	=19	=19	=19
2r	.	1r	.	1FM	F:maj (F A C)	.	.	voice
4r	.	.	.	.	.	.	.	.
16c	Speak	.	.	.	.	.	.	.
16c	the	.	.	.	.	.	.	.
[8c	lan	.	.	.	.	.	.	.
=20	=20	=20	=20	=20	=20	=20	=20	=20
8c]	_	1r	.	2FM	F:maj (F A C)	.	.	voice
8c	guage	.	.	.	.	.	.	.
8c	of	.	.	.	.	.	.	.
8cq	_	.	.	.	.	.	.	.
[8d	love	.	.	.	.	.	.	.
6d]	_	.	.	2FM	F:maj6 (F A C D)	.	.	voice
6d	like	.	.	.	.	.	.	.
6d	you	.	.	.	.	.	.	.
=21	=21	=21	=21	=21	=21	=21	=21	=21
6e	know	1r	.	2FMM	F:maj7 (F A C E)	.	.	voice
6e	what	.	.	.	.	.	.	.
8eq	_	.	.	.	.	.	.	.
8g	it	.	.	.	.	.	.	.
[24f	means	.	.	.	.	.	.	.
8.f]	_	.	.	2FM	F:maj (F A C)	.	.	voice
16d	_	.	.	.	.	.	.	.
4c	_	.	.	.	.	.	.	.
=22	=22	=22	=22	=22	=22	=22	=22	=22
1r	.	1r	.	1FM	F:maj (F A C)	newline	46.696	voice
=23	=23	=23	=23	=23	=23	=23	=23	=23
4r	.	1r	.	1FM	F:maj (F A C)	.	.	voice
8r	.	.	.	.	.	.	.	.
[8f	Mm,	.	.	.	.	.	.	.
8f]	_	.	.	.	.	.	.	.
16f	and	.	.	.	.	.	.	.
16f	it	.	.	.	.	.	.	.
8f	can't	.	.	.	.	.	.	.
8f	be	.	.	.	.	.	.	.
=24	=24	=24	=24	=24	=24	=24	=24	=24
16f	wrong!	1r	.	2FM	F:maj (F A C)	.	.	voice
16d	_	.	.	.	.	.	.	.
8r	.	.	.	.	.	.	.	.
4r	_	.	.	.	.	.	.	.
2r	.	.	.	2FM	F:maj6 (F A C D)	.	.	voice
=25	=25	=25	=25	=25	=25	=25	=25	=25
8r	.	1r	.	2FMM	F:maj7 (F A C E)	.	.	voice
8a	Take	.	.	.	.	.	.	.
8g	my	.	.	.	.	.	.	.
8g	heart	.	.	.	.	.	.	.
8f	_	.	.	2FM	F:maj (F A C)	.	.	voice
8f	and	.	.	.	.	.	.	.
8f	make	.	.	.	.	.	.	.
8f	it	.	.	.	.	.	.	.
=26	=26	=26	=26	=26	=26	=26	=26	=26
8f	strong,	1r	.	1Dmm	D:min9 (D F C E)	newline	55.867	voice
4B-	_	.	.	.	.	.	.	.
8B-	babe	.	.	.	.	.	.	.
2r	...	.	.	.	.	.	.	.
=27	=27	=27	=27	=27	=27	=27	=27	=27
4r	.	1r	.	1Dmm	D:min9 (D F C E)	.	.	voice
8r	.	.	.	.	.	.	.	.
8c	you're	.	.	.	.	.	.	.
8b-	sim-	.	.	.	.	.	.	.
8b-	-ply	.	.	.	.	.	.	.
8b-	the	.	.	.	.	.	.	.
8gq	_	.	.	.	.	.	.	.
8a	best!	.	.	.	.	.	.	.
=28	=28	=28	=28	=28	=28	=28	=28	=28
1r	.	1r	.	1B-M	B-:maj (B- D F)	.	.	voice
=29	=29	=29	=29	=29	=29	=29	=29	=29
2r	.	1r	.	1CMm	C:7 (C E G B-)	.	.	voice
8a	Bet-	.	.	.	.	.	.	.
8a	-ter	.	.	.	.	.	.	.
4a	than	.	.	.	.	.	.	.
=30	=30	=30	=30	=30	=30	=30	=30	=30
*	*	*	*	*>C_chorus	*>C_chorus	*>C_chorus	*>C_chorus	*>C_chorus
4a	all	1r	.	2.FM	F:maj (F A C)	newline	65.152	voice
8f	the	.	.	.	.	.	.	.
8f	rest!	.	.	.	.	.	.	.
2r	_	.	.	.	.	.	.	.
.	.	.	.	4FM	F:maj(9) (F A C G)	.	.	voice
=31	=31	=31	=31	=31	=31	=31	=31	=31
2r	.	1r	.	2FM	F:sus4 (F B- C)	.	.	voice
8a	Bet-	.	.	2FM	F:maj (F A C)	.	.	voice
8a	-ter	.	.	.	.	.	.	.
4a	than	.	.	.	.	.	.	.
=32	=32	=32	=32	=32	=32	=32	=32	=32
8a	a-	1r	.	2.FM	F:maj (F A C)	.	.	voice
4f	-ny-	.	.	.	.	.	.	.
8f	-one,	.	.	.	.	.	.	.
2r	_	.	.	.	.	.	.	.
.	.	.	.	4FM	F:maj(9) (F A C G)	.	.	voice
=33	=33	=33	=33	=33	=33	=33	=33	=33
2r	.	1r	.	2FM	F:sus4 (F B- C)	.	.	voice
16r	.	.	.	2FM	F:maj (F A C)	.	.	voice
16f	a-	.	.	.	.	.	.	.
8f	-ny-	.	.	.	.	.	.	.
8f	-one	.	.	.	.	.	.	.
8f	I've	.	.	.	.	.	.	.
=34	=34	=34	=34	=34	=34	=34	=34	=34
8f	e	1r	.	2.Dmm	D:min7 (D F A C)	newline	74.416	voice
8c	_	.	.	.	.	.	.	.
8c	ver	.	.	.	.	.	.	.
8c	met!	.	.	.	.	.	.	.
2r	_	.	.	.	.	.	.	.
.	.	.	.	4Dmm	D:min11 (D F C G)	.	.	voice
=35	=35	=35	=35	=35	=35	=35	=35	=35
4r	.	1r	.	2B-M	B-:maj(9) (D B- F C)	.	.	voice
8r	.	.	.	.	.	.	.	.
8g	I'm	.	.	.	.	.	.	.
8b-	stuck	.	.	2Dmm	D:min7 (D F A C)	.	.	voice
[8b-	on	.	.	.	.	.	.	.
16b-]	_	.	.	.	.	.	.	.
8.b-	your	.	.	.	.	.	.	.
=36	=36	=36	=36	=36	=36	=36	=36	=36
8a	heart!	1r	.	1CM	C:maj (C E G)	.	.	voice
4f	_	.	.	.	.	.	.	.
8r	_	.	.	.	.	.	.	.
2r	.	.	.	.	.	.	.	.
=37	=37	=37	=37	=37	=37	=37	=37	=37
4r	.	2r	.	1CM	C:maj (C E G)	.	.	voice
8r	.	.	.	.	.	.	.	.
8f	I	.	.	.	.	.	.	.
8a	hang	8f	_	.	.	.	.	.
8a	on	8f	_	.	.	.	.	.
8a	ev-	8f	_	.	.	.	.	.
8a	-'ry	8f	_	.	.	.	.	.
=38	=38	=38	=38	=38	=38	=38	=38	=38
8gq	_	8dq	_	.	.	.	.	.
8a-	word	8f	_	2.FM	F:maj (F A C)	newline	83.685	voice
8g	_	8d	_	.	.	.	.	.
8f	you	8c	_	.	.	.	.	.
8f	say!	8c	_	.	.	.	.	.
2r	_	2r	.	.	.	.	.	.
.	.	.	.	4FM	F:maj(9) (F A C G)	.	.	voice
=39	=39	=39	=39	=39	=39	=39	=39	=39
2r	.	1r	.	2FM	F:sus4 (F B- C)	.	.	voice
8f	Tear	.	.	2FM	F:maj (F A C)	.	.	voice
8f	us	.	.	.	.	.	.	.
16f	a-	.	.	.	.	.	.	.
16fq	_	.	.	.	.	.	.	.
[8.d	-part	.	.	.	.	.	.	.
=40	=40	=40	=40	=40	=40	=40	=40	=40
8d]	_	1r	.	2.FM	F:maj (F A C)	.	.	voice
16c	_	.	.	.	.	.	.	.
16A	_	.	.	.	.	.	.	.
16A	_	.	.	.	.	.	.	.
16G	_	.	.	.	.	.	.	.
8F	_	.	.	.	.	.	.	.
2r	.	.	.	.	.	.	.	.
.	.	.	.	4FM	F:maj(9) (F A C G)	.	.	voice
=41	=41	=41	=41	=41	=41	=41	=41	=41
2r	.	1r	.	2FM	F:sus4 (F B- C)	.	.	voice
8f	Ba-	.	.	2FM	F:maj (F A C)	.	.	voice
8f	-by,	.	.	.	.	.	.	.
8f	I	.	.	.	.	.	.	.
8f	would	.	.	.	.	.	.	.
=42	=42	=42	=42	=42	=42	=42	=42	=42
6d	ra-	1r	.	2.Dmm	D:min7 (D F A C)	newline	92.88	voice
6c	-ther	.	.	.	.	.	.	.
8cq	_	.	.	.	.	.	.	.
6d	be	.	.	.	.	.	.	.
8c	_	.	.	.	.	.	.	.
4.c	dead!	.	.	.	.	.	.	.
.	.	.	.	4Dmm	D:min11 (D F C G)	.	.	voice
=43	=43	=43	=43	=43	=43	=43	=43	=43
2r	_	1r	.	2B-M	B-:maj(9) (D B- F C)	.	.	voice
4r	.	.	.	2Dmm	D:min7 (D F A C)	.	.	voice
16A	In	.	.	.	.	.	.	.
16B-	your	.	.	.	.	.	.	.
[8c	heart	.	.	.	.	.	.	.
=44	=44	=44	=44	=44	=44	=44	=44	=44
8.c]	_	1r	.	1CM	C:maj (C E G)	.	.	voice
16c	I	.	.	.	.	.	.	.
16c	see	.	.	.	.	.	.	.
16c	the	.	.	.	.	.	.	.
[8d	start	.	.	.	.	.	.	.
8.d]	_	.	.	.	.	.	.	.
16d	of	.	.	.	.	.	.	.
16d	ev-	.	.	.	.	.	.	.
16d	-'ry	.	.	.	.	.	.	.
16dq	_	.	.	.	.	.	.	.
[8e	night	.	.	.	.	.	.	.
=45	=45	=45	=45	=45	=45	=45	=45	=45
8.e]	_	1r	.	1CM	C:maj (C E G)	.	.	voice
16e	and	.	.	.	.	.	.	.
16e	ev-	.	.	.	.	.	.	.
16f	-'ry	.	.	.	.	.	.	.
[8f	day	.	.	.	.	.	.	.
8f]	_	.	.	.	.	.	.	.
16d	_	.	.	.	.	.	.	.
16c	_	.	.	.	.	.	.	.
4c	_	.	.	.	.	.	.	.
=46	=46	=46	=46	=46	=46	=46	=46	=46
*	*	*	*	*>B_verse	*>B_verse	*>B_verse	*>B_verse	*>B_verse
1r	.	1r	.	1FM	F:maj (F A C)	newline	102.098	voice
=47	=47	=47	=47	=47	=47	=47	=47	=47
2r	.	1r	.	1FM	F:maj (F A C)	.	.	voice
4r	.	.	.	.	.	.	.	.
16c	In	.	.	.	.	.	.	.
16c	your	.	.	.	.	.	.	.
8c	eyes,	.	.	.	.	.	.	.
=48	=48	=48	=48	=48	=48	=48	=48	=48
4A	_	1r	.	2FM	F:maj (F A C)	.	.	voice
16r	_	.	.	.	.	.	.	.
16A	I	.	.	.	.	.	.	.
8c	get	.	.	.	.	.	.	.
4e	lost,	.	.	2FM	F:maj6 (F A C D)	.	.	voice
16r	_	.	.	.	.	.	.	.
16A	I	.	.	.	.	.	.	.
8d	get	.	.	.	.	.	.	.
=49	=49	=49	=49	=49	=49	=49	=49	=49
4e	washed	1r	.	2FMM	F:maj7 (F A C E)	.	.	voice
8f	a-	.	.	.	.	.	.	.
[8f	-way	.	.	.	.	.	.	.
8f]	_	.	.	2FM	F:maj (F A C)	.	.	voice
16d	_	.	.	.	.	.	.	.
16c	_	.	.	.	.	.	.	.
4c	_	.	.	.	.	.	.	.
=50	=50	=50	=50	=50	=50	=50	=50	=50
1r	.	1r	.	1FM	F:maj (F A C)	newline	111.386	voice
=51	=51	=51	=51	=51	=51	=51	=51	=51
2r	.	1r	.	1FM	F:maj (F A C)	.	.	voice
6r	.	.	.	.	.	.	.	.
6a	Just	.	.	.	.	.	.	.
8gq	_	.	.	.	.	.	.	.
6a	as	.	.	.	.	.	.	.
=52	=52	=52	=52	=52	=52	=52	=52	=52
12a	long	1r	.	2FM	F:maj (F A C)	.	.	voice
12g	_	.	.	.	.	.	.	.
6g	as	.	.	.	.	.	.	.
6g	I'm	.	.	.	.	.	.	.
12g	here	.	.	2FM	F:maj6 (F A C D)	.	.	voice
12f	_	.	.	.	.	.	.	.
6f	in	.	.	.	.	.	.	.
6f	your	.	.	.	.	.	.	.
=53	=53	=53	=53	=53	=53	=53	=53	=53
6f	arms	1r	.	2FMM	F:maj7 (F A C E)	.	.	voice
6f	I	.	.	.	.	.	.	.
6f	could	.	.	.	.	.	.	.
6f	be	.	.	2FM	F:maj (F A C)	.	.	voice
6f	in	.	.	.	.	.	.	.
[6f	no	.	.	.	.	.	.	.
=54	=54	=54	=54	=54	=54	=54	=54	=54
8f]	_	1r	.	1Dmm	D:min9 (D F C E)	newline	120.581	voice
8e-	bet-	.	.	.	.	.	.	.
8d	-ter	.	.	.	.	.	.	.
[8d	place!	.	.	.	.	.	.	.
8d]	_	.	.	.	.	.	.	.
8r	_	.	.	.	.	.	.	.
4r	.	.	.	.	.	.	.	.
=55	=55	=55	=55	=55	=55	=55	=55	=55
4r	.	2r	.	1Dmm	D:min9 (D F C E)	.	.	voice
8r	.	.	.	.	.	.	.	.
8c	you're	.	.	.	.	.	.	.
8b-	sim-	8dd	sim-	.	.	.	.	.
8b-	-ply	8dd	-ply	.	.	.	.	.
8b-	the	8dd	the	.	.	.	.	.
8gq	_	.	.	.	.	.	.	.
8a	best!	8cc	best!	.	.	.	.	.
=56	=56	=56	=56	=56	=56	=56	=56	=56
1r	.	1r	.	1B-M	B-:maj (B- D F)	.	.	voice
=57	=57	=57	=57	=57	=57	=57	=57	=57
2r	.	2r	.	1CMm	C:7 (C E G B-)	.	.	voice
8a	Bet-	8cc	Bet-	.	.	.	.	.
8a	-ter	8cc	-ter	.	.	.	.	.
4a	than	4cc	than	.	.	.	.	.
=58	=58	=58	=58	=58	=58	=58	=58	=58
*	*	*	*	*>C_chorus	*>C_chorus	*>C_chorus	*>C_chorus	*>C_chorus
4a	all	4cc	all	2.FM	F:maj (F A C)	newline	129.829	voice
8f	the	8a	the	.	.	.	.	.
8f	rest!	8a	rest!	.	.	.	.	.
2r	_	2r	_	.	.	.	.	.
.	.	.	.	4FM	F:maj(9) (F A C G)	.	.	voice
=59	=59	=59	=59	=59	=59	=59	=59	=59
2r	.	2r	.	2FM	F:sus4 (F B- C)	.	.	voice
8a	Bet-	8cc	Bet-	2FM	F:maj (F A C)	.	.	voice
8a	-ter	8cc	-ter	.	.	.	.	.
4a	than	4cc	than	.	.	.	.	.
=60	=60	=60	=60	=60	=60	=60	=60	=60
8a	a-	4cc	a-	2.FM	F:maj (F A C)	.	.	voice
8f	-ny-	.	.	.	.	.	.	.
8f	_	8a	_	.	.	.	.	.
8f	-one,	8a	-one,	.	.	.	.	.
2r	_	2r	_	.	.	.	.	.
.	.	.	.	4FM	F:maj(9) (F A C G)	.	.	voice
=61	=61	=61	=61	=61	=61	=61	=61	=61
2r	.	2r	.	2FM	F:sus4 (F B- C)	.	.	voice
8f	a-	8a	a-	2FM	F:maj (F A C)	.	.	voice
8f	-ny-	8a	-ny-	.	.	.	.	.
8f	-one	8a	-one	.	.	.	.	.
8f	I've	8a	I've	.	.	.	.	.
=62	=62	=62	=62	=62	=62	=62	=62	=62
8f	e	8a	e	2.Dmm	D:min7 (D F A C)	newline	139.137	voice
8c	_	8g	_	.	.	.	.	.
8c	ver	8g	ver	.	.	.	.	.
8c	met!	8g	met!	.	.	.	.	.
2r	_	2r	_	.	.	.	.	.
.	.	.	.	4Dmm	D:min11 (D F C G)	.	.	voice
=63	=63	=63	=63	=63	=63	=63	=63	=63
4r	.	2r	.	2B-M	B-:maj(9) (D B- F C)	.	.	voice
16r	.	.	.	.	.	.	.	.
16.cc	_	.	.	.	.	.	.	.
16.b-	_	.	.	.	.	.	.	.
8b-	stuck	8dd	stuck	2Dmm	D:min7 (D F A C)	.	.	voice
[8b-	on	[8dd	on	.	.	.	.	.
16b-]	_	16dd]	_	.	.	.	.	.
8.b-	your	8.dd	your	.	.	.	.	.
=64	=64	=64	=64	=64	=64	=64	=64	=64
8a	heart!	8cc	heart!	1CM	C:maj (C E G)	.	.	voice
4f	_	4a	_	.	.	.	.	.
8r	_	8r	_	.	.	.	.	.
2r	.	2r	.	.	.	.	.	.
=65	=65	=65	=65	=65	=65	=65	=65	=65
4r	.	2r	.	1CM	C:maj (C E G)	.	.	voice
8r	.	.	.	.	.	.	.	.
8f	I	.	.	.	.	.	.	.
8a	hang	8cc	hang	.	.	.	.	.
8a	on	8cc	on	.	.	.	.	.
8a	ev-	8cc	ev-	.	.	.	.	.
8a	-'ry	8cc	-'ry	.	.	.	.	.
=66	=66	=66	=66	=66	=66	=66	=66	=66
8gq	_	8b-q	_	.	.	.	.	.
8a-	word	8cc	word	2.FM	F:maj (F A C)	newline	148.376	voice
8g	_	8b-	_	.	.	.	.	.
8f	you	8a	you	.	.	.	.	.
8f	say!	8a	say!	.	.	.	.	.
2r	_	2r	_	.	.	.	.	.
.	.	.	.	4FM	F:maj(9) (F A C G)	.	.	voice
=67	=67	=67	=67	=67	=67	=67	=67	=67
4r	.	1r	.	2FM	F:sus4 (F B- C)	.	.	voice
8gq	_	.	.	.	.	.	.	.
4a	Oh,	.	.	.	.	.	.	.
8a	tear	.	.	2FM	F:maj (F A C)	.	.	voice
8g	us	.	.	.	.	.	.	.
8f	a-	.	.	.	.	.	.	.
[8f	-part,	.	.	.	.	.	.	.
=68	=68	=68	=68	=68	=68	=68	=68	=68
8f]	_	1r	.	2.FM	F:maj (F A C)	.	.	voice
[8d	no,	.	.	.	.	.	.	.
16d]	_	.	.	.	.	.	.	.
8.A	no,	.	.	.	.	.	.	.
4G	no!	.	.	.	.	.	.	.
4r	_	.	.	4FM	F:maj(9) (F A C G)	.	.	voice
=69	=69	=69	=69	=69	=69	=69	=69	=69
2r	.	1r	.	2FM	F:sus4 (F B- C)	.	.	voice
16cQ	_	.	.	.	.	.	.	.
16dQ	_	.	.	.	.	.	.	.
8e	Ba-	.	.	2FM	F:maj (F A C)	.	.	voice
8f	-by,	.	.	.	.	.	.	.
8f	I	.	.	.	.	.	.	.
8f	would	.	.	.	.	.	.	.
=70	=70	=70	=70	=70	=70	=70	=70	=70
6d	ra-	1r	.	2.Dmm	D:min7 (D F A C)	newline	157.571	voice
6c	-ther	.	.	.	.	.	.	.
8cq	_	.	.	.	.	.	.	.
6d	be	.	.	.	.	.	.	.
8c	_	.	.	.	.	.	.	.
4.c	dead	.	.	.	.	.	.	.
.	.	.	.	4Dmm	D:min11 (D F C G)	.	.	voice
=71	=71	=71	=71	=71	=71	=71	=71	=71
1r	.	1r	.	2B-M	B-:maj(9) (D B- F C)	.	.	voice
.	.	.	.	2Dmm	D:min7 (D F A C)	.	.	voice
=72	=72	=72	=72	=72	=72	=72	=72	=72
8r	.	1r	.	1CM	C:maj (C E G)	.	.	voice
8b-	Each	.	.	.	.	.	.	.
8b-	time	.	.	.	.	.	.	.
8b-	you	.	.	.	.	.	.	.
8b-	leave	.	.	.	.	.	.	.
8b-	me	.	.	.	.	.	.	.
8b-	I	.	.	.	.	.	.	.
8b-	start	.	.	.	.	.	.	.
=73	=73	=73	=73	=73	=73	=73	=73	=73
8b-	lo-	1r	.	1CM	C:maj (C E G)	.	.	voice
8a	-sing	.	.	.	.	.	.	.
8g	con-	.	.	.	.	.	.	.
8b-	-trol,	.	.	.	.	.	.	.
16a	_	.	.	.	.	.	.	.
8.g	_	.	.	.	.	.	.	.
8r	_	.	.	.	.	.	.	.
8B-	you're	.	.	.	.	.	.	.
=74	=74	=74	=74	=74	=74	=74	=74	=74
*	*	*	*	*>D_bridge	*>D_bridge	*>D_bridge	*>D_bridge	*>D_bridge
8a	wal-	1r	.	1B-M	B-:maj(9) (B- D F C)	newline	166.815	voice
8a	-king	.	.	.	.	.	.	.
8a	a-	.	.	.	.	.	.	.
8g#q	_	.	.	.	.	.	.	.
[8a	-way	.	.	.	.	.	.	.
8a]	_	.	.	.	.	.	.	.
8g	with	.	.	.	.	.	.	.
8f	my	.	.	.	.	.	.	.
8g#q	_	.	.	.	.	.	.	.
[8a	heart	.	.	.	.	.	.	.
=75	=75	=75	=75	=75	=75	=75	=75	=75
8a]	_	1r	.	1B-M	B-:maj(9) (B- D F C)	.	.	voice
8g	and	.	.	.	.	.	.	.
8f	my	.	.	.	.	.	.	.
8g#q	_	.	.	.	.	.	.	.
[8a	soul!	.	.	.	.	.	.	.
4a]	_	.	.	.	.	.	.	.
4r	_	.	.	.	.	.	.	.
=76	=76	=76	=76	=76	=76	=76	=76	=76
4r	.	1r	.	1Dmm	D:min7 (D F A C)	.	.	voice
8b-	I	.	.	.	.	.	.	.
8b-	can	.	.	.	.	.	.	.
8b-	feel	.	.	.	.	.	.	.
8b-	you	.	.	.	.	.	.	.
8b-	e-	.	.	.	.	.	.	.
8b-	-ven	.	.	.	.	.	.	.
=77	=77	=77	=77	=77	=77	=77	=77	=77
8b-	when	1r	.	1Dmm	D:min7 (D F A C)	.	.	voice
8a	I'm	.	.	.	.	.	.	.
8g	a-	.	.	.	.	.	.	.
8b-	-lone!	.	.	.	.	.	.	.
16a	_	.	.	.	.	.	.	.
8.g	_	.	.	.	.	.	.	.
4r	_	.	.	.	.	.	.	.
=78	=78	=78	=78	=78	=78	=78	=78	=78
8r	.	1r	.	1B-M	B-:maj (B- D F)	newline	176.046	voice
[8cc	Oh,	.	.	.	.	.	.	.
16cc]	_	.	.	.	.	.	.	.
[8.cc	ba	.	.	.	.	.	.	.
8cc]	_	.	.	.	.	.	.	.
8a	_	.	.	.	.	.	.	.
8a	by!	.	.	.	.	.	.	.
8r	_	.	.	.	.	.	.	.
=79	=79	=79	=79	=79	=79	=79	=79	=79
*G:	*	*G:	*	*	*	*	*	*
8r	.	1r	.	1B-M	B-:maj (B- D F)	.	.	voice
16dd	Don't	.	.	.	.	.	.	.
16cc	_	.	.	.	.	.	.	.
8dd	let	.	.	.	.	.	.	.
[8dd	go!	.	.	.	.	.	.	.
8dd]	_	.	.	.	.	.	.	.
16cc	_	.	.	.	.	.	.	.
16a	_	.	.	.	.	.	.	.
4r	_	.	.	.	.	.	.	.
=80	=80	=80	=80	=80	=80	=80	=80	=80
1r	.	1r	.	1CM	C:maj (C E G)	.	.	voice
=81	=81	=81	=81	=81	=81	=81	=81	=81
1r	.	1r	.	2CM	C:maj (C E G)	.	.	voice
.	.	.	.	2DM	D:maj (D F# A)	.	.	voice
=82	=82	=82	=82	=82	=82	=82	=82	=82
*	*	*	*	*>C2_solo	*>C2_solo	*>C2_solo	*>C2_solo	*>C2_solo
*	*	*	*	*G:	*G:	*G:	*G:	*G:
1r	.	1r	.	2.GM	G:maj (G B D)	newline	185.345	saxophone
.	.	.	.	4GM	G:maj(9) (G B D A)	.	.	saxophone
=83	=83	=83	=83	=83	=83	=83	=83	=83
1r	.	1r	.	2GM	G:sus4 (G C D)	.	.	saxophone
.	.	.	.	2GM	G:maj (G B D)	.	.	saxophone
=84	=84	=84	=84	=84	=84	=84	=84	=84
1r	.	1r	.	2.GM	G:maj (G B D)	.	.	saxophone
.	.	.	.	4GM	G:maj(9) (G B D A)	.	.	saxophone
=85	=85	=85	=85	=85	=85	=85	=85	=85
1r	.	1r	.	2GM	G:sus4 (G C D)	.	.	saxophone
.	.	.	.	2GM	G:maj (G B D)	.	.	saxophone
=86	=86	=86	=86	=86	=86	=86	=86	=86
1r	.	1r	.	2.Emm	E:min7 (E G B D)	newline	194.557	saxophone
.	.	.	.	4Emm	E:min11 (E G D A)	.	.	saxophone
=87	=87	=87	=87	=87	=87	=87	=87	=87
*clefG2	*	*	*	*	*	*	*	*
8r	.	1r	.	2CM	C:maj(9) (E C G D)	.	.	saxophone
4.dd	_	.	.	.	.	.	.	.
8cc	sim-	.	.	2Emm	E:min7 (E G B D)	.	.	saxophone
8cc	-ply	.	.	.	.	.	.	.
8cc	the	.	.	.	.	.	.	.
8b	best!	.	.	.	.	.	.	.
=88	=88	=88	=88	=88	=88	=88	=88	=88
8r	.	1r	.	1DM	D:maj (D F# A)	.	.	saxophone
8bb-	_	.	.	.	.	.	.	.
4r	.	.	.	.	.	.	.	.
2r	.	.	.	.	.	.	.	.
=89	=89	=89	=89	=89	=89	=89	=89	=89
2r	.	2r	.	1DM	D:maj (D F# A)	.	.	saxophone
8b	Bet-	8dd	Bet-	.	.	.	.	.
8b	-ter	8dd	-ter	.	.	.	.	.
4b	than	4dd	than	.	.	.	.	.
=90	=90	=90	=90	=90	=90	=90	=90	=90
*	*	*	*	*>C_chorus	*>C_chorus	*>C_chorus	*>C_chorus	*>C_chorus
8b	all	8dd	all	2.GM	G:maj (G B D)	newline	203.779	voice
8g	_	8b	_	.	.	.	.	.
8g	the	8b	the	.	.	.	.	.
8g	rest!	8b	rest!	.	.	.	.	.
2r	_	2r	_	.	.	.	.	.
.	.	.	.	4GM	G:maj(9) (G B D A)	.	.	voice
=91	=91	=91	=91	=91	=91	=91	=91	=91
2r	.	2r	.	2GM	G:sus4 (G C D)	.	.	voice
8b	Bet-	8dd	Bet-	2GM	G:maj (G B D)	.	.	voice
8b	-ter	8dd	-ter	.	.	.	.	.
4b	than	4dd	than	.	.	.	.	.
=92	=92	=92	=92	=92	=92	=92	=92	=92
8b	a-	4dd	a-	2.GM	G:maj (G B D)	.	.	voice
8g	-ny-	.	.	.	.	.	.	.
8g	_	8b	_	.	.	.	.	.
8g	-one,	8b	-one,	.	.	.	.	.
2r	_	2r	_	.	.	.	.	.
.	.	.	.	4GM	G:maj(9) (G B D A)	.	.	voice
=93	=93	=93	=93	=93	=93	=93	=93	=93
2r	.	2r	.	2GM	G:sus4 (G C D)	.	.	voice
8g	_	8b	_	2GM	G:maj (G B D)	.	.	voice
8g	ny-	8b	ny-	.	.	.	.	.
8g	-one	8b	-one	.	.	.	.	.
8g	I've	8b	I've	.	.	.	.	.
=94	=94	=94	=94	=94	=94	=94	=94	=94
8g	e	8b	e	2.Emm	E:min7 (E G B D)	newline	213.047	voice
8d	_	8a	_	.	.	.	.	.
8d	ver	8a	ver	.	.	.	.	.
8d	met!	8a	met!	.	.	.	.	.
2r	_	2r	_	.	.	.	.	.
.	.	.	.	4Emm	E:min11 (E G D A)	.	.	voice
=95	=95	=95	=95	=95	=95	=95	=95	=95
4r	.	2r	.	2CM	C:maj(9) (E C G D)	.	.	voice
16r	.	.	.	.	.	.	.	.
16.dd	Ooh,	.	.	.	.	.	.	.
16.cc	I'm	.	.	.	.	.	.	.
8cc	stuck	8ee	stuck	2Emm	E:min7 (E G B D)	.	.	voice
[8cc	on	[8ee	on	.	.	.	.	.
16cc]	_	16ee]	_	.	.	.	.	.
8.cc	your	8.ee	your	.	.	.	.	.
=96	=96	=96	=96	=96	=96	=96	=96	=96
8b	heart!	8dd	heart!	1DM	D:maj (D F# A)	.	.	voice
4g	_	4b	_	.	.	.	.	.
8r	_	8r	_	.	.	.	.	.
2r	.	2r	.	.	.	.	.	.
=97	=97	=97	=97	=97	=97	=97	=97	=97
4r	.	2r	.	1DM	D:maj (D F# A)	.	.	voice
8r	.	.	.	.	.	.	.	.
8g	I	.	.	.	.	.	.	.
8b	hang	8dd	hang	.	.	.	.	.
8b	on	8dd	on	.	.	.	.	.
8b	ev-	8dd	ev-	.	.	.	.	.
8b	-'ry	8dd	-'ry	.	.	.	.	.
=98	=98	=98	=98	=98	=98	=98	=98	=98
8aq	_	8ccq	_	.	.	.	.	.
8b-	word	8dd	word	2.GM	G:maj (G B D)	newline	222.257	voice
8a	_	8cc	_	.	.	.	.	.
8g	you	8b	you	.	.	.	.	.
8g	say!	8b	say!	.	.	.	.	.
2r	_	2r	_	.	.	.	.	.
.	.	.	.	4GM	G:maj(9) (G B D A)	.	.	voice
=99	=99	=99	=99	=99	=99	=99	=99	=99
4r	.	1r	.	2GM	G:sus4 (G C D)	.	.	voice
8aq	_	.	.	.	.	.	.	.
4b	Oh,	.	.	.	.	.	.	.
8b	tear	.	.	2GM	G:maj (G B D)	.	.	voice
8a	us	.	.	.	.	.	.	.
8g	a-	.	.	.	.	.	.	.
8g	-part!	.	.	.	.	.	.	.
=100	=100	=100	=100	=100	=100	=100	=100	=100
8e	_	1r	.	2.GM	G:maj (G B D)	.	.	voice
8r	_	.	.	.	.	.	.	.
16r	.	.	.	.	.	.	.	.
16e	No,	.	.	.	.	.	.	.
[8B	_	.	.	.	.	.	.	.
16B]	_	.	.	.	.	.	.	.
8.A	no!	.	.	.	.	.	.	.
4r	_	.	.	4GM	G:maj(9) (G B D A)	.	.	voice
=101	=101	=101	=101	=101	=101	=101	=101	=101
*clefC3	*	*	*	*	*	*	*	*
2r	.	1r	.	2GM	G:sus4 (G C D)	.	.	voice
8g	Ba-	.	.	2GM	G:maj (G B D)	.	.	voice
8g	-by,	.	.	.	.	.	.	.
8g	I	.	.	.	.	.	.	.
8g	would	.	.	.	.	.	.	.
=102	=102	=102	=102	=102	=102	=102	=102	=102
6e	ra-	1r	.	2.Emm	E:min7 (E G B D)	newline	231.464	voice
6d	-ther	.	.	.	.	.	.	.
8dq	_	.	.	.	.	.	.	.
6e	be	.	.	.	.	.	.	.
8d	_	.	.	.	.	.	.	.
4.d	dead	.	.	.	.	.	.	.
.	.	.	.	4Emm	E:min11 (E G D A)	.	.	voice
=103	=103	=103	=103	=103	=103	=103	=103	=103
8r	.	1r	.	2CM	C:maj(9) (E C G D)	.	.	voice
4.dd	Oh,	.	.	.	.	.	.	.
8cc	_	.	.	2Emm	E:min7 (E G B D)	.	.	voice
8cc	you're	.	.	.	.	.	.	.
8cc	the	.	.	.	.	.	.	.
8b	best!	.	.	.	.	.	.	.
=104	=104	=104	=104	=104	=104	=104	=104	=104
1r	.	1r	.	1DM	D:maj (D F# A)	.	.	voice
*-	*-	*-	*-	*	*	*	*
=104	=104	=104	=104	=104
1DM	D:maj (D F# A)	.	.	voice
=105	=105	=105	=105	=105
*>A_interlude	*>A_interlude	*>A_interlude	*>A_interlude	*>A_interlude
1GM	G:maj (G B D)	newline	240.712	synthesizer
=106	=106	=106	=106	=106
1GM	G:maj(9) (G B D A)	.	.	synthesizer
=107	=107	=107	=107	=107
2.GM	G:maj (G B D)	newline	245.386	synthesizer
4GM	G:maj(9) (G B D A)	.	.	synthesizer
=108	=108	=108	=108	=108
2GM	G:sus4 (G C D)	.	.	synthesizer
2GM	G:maj (G B D)	.	.	synthesizer
=109	=109	=109	=109	=109
2.GM	G:maj (G B D)	.	.	synthesizer
4GM	G:maj(9) (G B D A)	.	.	synthesizer
=110	=110	=110	=110	=110
2GM	G:sus4 (G C D)	.	.	synthesizer
2GM	G:maj (G B D)	.	.	synthesizer
=111	=111	=111	=111	=111
2.GM	G:maj (G B D)	newline	254.665	synthesizer
4GM	G:maj(9) (G B D A)	.	.	synthesizer
=112	=112	=112	=112	=112
2GM	G:sus4 (G C D)	.	.	synthesizer
2GM	G:maj (G B D)	.	.	synthesizer
=113	=113	=113	=113	=113
1DM	D:maj (D F# A)	.	.	synthesizer
=114	=114	=114	=114	=114
1DM	D:maj (D F# A)	.	.	synthesizer
=115	=115	=115	=115	=115
*>C_chorus	*>C_chorus	*>C_chorus	*>C_chorus	*>C_chorus
2.GM	G:maj (G B D)	newline	263.871	voice
4GM	G:maj(9) (G B D A)	.	.	voice
=116	=116	=116	=116	=116
2GM	G:sus4 (G C D)	.	.	voice
2GM	G:maj (G B D)	.	.	voice
=117	=117	=117	=117	=117
2.GM	G:maj (G B D)	.	.	voice
4GM	G:maj(9) (G B D A)	.	.	voice
=118	=118	=118	=118	=118
2GM	G:sus4 (G C D)	.	.	voice
2GM	G:maj (G B D)	.	.	voice
=119	=119	=119	=119	=119
2.Emm	E:min7 (E G B D)	newline	273.155	voice
4Emm	E:min11 (E G D A)	.	.	voice
=120	=120	=120	=120	=120
2CM	C:maj(9) (E C G D)	.	.	voice
2Emm	E:min7 (E G B D)	.	.	voice
=121	=121	=121	=121	=121
1DM	D:maj (D F# A)	.	.	voice
=122	=122	=122	=122	=122
1DM	D:maj (D F# A)	.	.	voice
=123	=123	=123	=123	=123
2.GM	G:maj (G B D)	newline	282.351	voice
4GM	G:maj(9) (G B D A)	.	.	voice
=124	=124	=124	=124	=124
2GM	G:sus4 (G C D)	.	.	voice
2GM	G:maj (G B D)	.	.	voice
=125	=125	=125	=125	=125
2.GM	G:maj (G B D)	.	.	voice
4GM	G:maj(9) (G B D A)	.	.	voice
=126	=126	=126	=126	=126
2GM	G:sus4 (G C D)	.	.	voice
2GM	G:maj (G B D)	.	.	voice
=127	=127	=127	=127	=127
2.Emm	E:min7 (E G B D)	newline	291.609	voice
4Emm	E:min11 (E G D A)	.	.	voice
=128	=128	=128	=128	=128
2CM	C:maj(9) (E C G D)	.	.	voice
2Emm	E:min7 (E G B D)	.	.	voice
=129	=129	=129	=129	=129
1DM	D:maj (D F# A)	.	.	voice
=130	=130	=130	=130	=130
1DM	D:maj (D F# A)	.	.	voice
=131	=131	=131	=131	=131
*>C_chorus	*>C_chorus	*>C_chorus	*>C_chorus	*>C_chorus
2.GM	G:maj (G B D)	newline	300.833	voice
4GM	G:maj(9) (G B D A)	.	.	voice
=132	=132	=132	=132	=132
2GM	G:sus4 (G C D)	.	.	voice
2GM	G:maj (G B D)	.	.	voice
=133	=133	=133	=133	=133
2.GM	G:maj (G B D)	.	.	voice
4GM	G:maj(9) (G B D A)	.	.	voice
=134	=134	=134	=134	=134
2GM	G:sus4 (G C D)	.	.	voice
2GM	G:maj (G B D)	.	.	voice
=135	=135	=135	=135	=135
2.Emm	E:min7 (E G B D)	newline	310.095	voice
4Emm	E:min11 (E G D A)	.	.	voice
=136	=136	=136	=136	=136
2CM	C:maj(9) (E C G D)	.	.	voice
2Emm	E:min7 (E G B D)	.	.	voice
=137	=137	=137	=137	=137
1DM	D:maj (D F# A)	.	.	voice
=138	=138	=138	=138	=138
1DM	D:maj (D F# A)	.	.	voice
=139	=139	=139	=139	=139
1GM	G:maj (G B D)	newline	319.29	synthesizer
=140	=140	=140	=140	=140
1GM	G:maj(9) (G B D A)	.	.	synthesizer
1r;	r	.	327.007	r
1r;	r	.	329.3	r
*-	*-	*-	*-	*-
!!!BillboardChartDate: 1989/11/04
!!!BillboardPeak: 15
!!!BillboardWeeksOnChart: 14
!!!COC: Tina Turner
!!!ENC: Nathaniel Condit-Schultz
!!!EST: Awating manual error checking and editing.
!!!OTL: The Best
!!!RDF**chordsym: original McGill chord annotation + (implied pitch class set, with bass pitch in first position)
!!!RDF**harmony: **recip + pitch class of root + harmonic quality
!!!RDF**leadinstrument: original McGill primary instrumentation annotation
!!!RDF**phrase: newline = linebreak in original McGill transcription
!!!RDF**timestamp: McGill audio timestamp in seconds
!!!RDT: 2017/01/12/
!!!SampleActualRank: 15
!!!SampleID#: 0348
!!!SampleTargetRank: 14
